X:99
T:Mumbo Grumbo. HSJJ.101
M:2/4
L:1/8
Q:1/4=110
S:HSJ Jackson,Wyresdale,Lancs.1823
R:.Country-dance
O:England
A:Lancashire
H:1823
Z:vmp.Chris Partington.
K:Bb
F|B(B/A/) Bd|c(c/B/) ce|dBGc|BAGF|!
B(B/A/) Bd|c(c/B/) ce|dg fA|B3:|!
|:F|edec|dcdc|GccB|BAGF|!
e2c2|d2B2|GBAc|” cr”B3:|

